symbols/web/local_florist/materialsymbolsoutlined/local_florist_wght600fill1_48px.svg

<svg xmlns="http://www.w3.org/2000/svg" height="48" width="48"><path d="M24 45.3q0-4 1.525-7.5t4.15-6.125q2.625-2.625 6.125-4.15Q39.3 26 43.3 26q0 4-1.525 7.5t-4.15 6.125Q35 42.25 31.5 43.775 28 45.3 24 45.3Zm0 0q0-4-1.525-7.5t-4.15-6.125Q15.7 29.05 12.2 27.525 8.7 26 4.7 26q0 4 1.525 7.5t4.15 6.125Q13 42.25 16.5 43.775 20 45.3 24 45.3Zm0-26.45q1.6 0 2.725-1.15T27.85 15q0-1.6-1.125-2.7T24 11.2q-1.55 0-2.7 1.1-1.15 1.1-1.15 2.7 0 1.55 1.15 2.7 1.15 1.15 2.7 1.15Zm0 10.55q-1.95 0-3.525-1.125T18.2 25.25q-.35 0-.7.025t-.65.025q-2.55 0-4.375-1.8-1.825-1.8-1.825-4.35 0-1.1.425-2.125T12.3 15q-.75-.95-1.175-1.975Q10.7 12 10.7 10.9q0-2.55 1.8-4.375Q14.3 4.7 16.85 4.7q.35 0 .675.025.325.025.675.025.7-1.85 2.275-3T24 .6q1.95 0 3.525 1.15t2.325 3q.3 0 .625-.025t.675-.025q2.55 0 4.35 1.825 1.8 1.825 1.8 4.375 0 1.05-.4 2.1t-1.2 2q.75 1 1.175 2.025.425 1.025.425 2.125 0 2.55-1.8 4.35-1.8 1.8-4.35 1.8-.35 0-.65-.025-.3-.025-.65-.025-.75 1.9-2.325 3.025Q25.95 29.4 24 29.4Z"/></svg>

<svg xmlns="http://www.w3.org/2000/svg" height="48" width="48"><path d="M24 45.3Q24 41.3 25.525 37.8Q27.05 34.3 29.675 31.675Q32.3 29.05 35.8 27.525Q39.3 26 43.3 26Q43.3 30 41.775 33.5Q40.25 37 37.625 39.625Q35 42.25 31.5 43.775Q28 45.3 24 45.3ZM24 45.3Q24 41.3 22.475 37.8Q20.95 34.3 18.325 31.675Q15.7 29.05 12.2 27.525Q8.7 26 4.7 26Q4.7 30 6.225 33.5Q7.75 37 10.375 39.625Q13 42.25 16.5 43.775Q20 45.3 24 45.3ZM24 18.85Q25.6 18.85 26.725 17.7Q27.85 16.55 27.85 15Q27.85 13.4 26.725 12.3Q25.6 11.2 24 11.2Q22.45 11.2 21.3 12.3Q20.15 13.4 20.15 15Q20.15 16.55 21.3 17.7Q22.45 18.85 24 18.85ZM24 29.4Q22.05 29.4 20.475 28.275Q18.9 27.15 18.2 25.25Q17.85 25.25 17.5 25.275Q17.15 25.3 16.85 25.3Q14.3 25.3 12.475 23.5Q10.65 21.7 10.65 19.15Q10.65 18.05 11.075 17.025Q11.5 16 12.3 15Q11.55 14.05 11.125 13.025Q10.7 12 10.7 10.9Q10.7 8.35 12.5 6.525Q14.3 4.7 16.85 4.7Q17.2 4.7 17.525 4.725Q17.85 4.75 18.2 4.75Q18.9 2.9 20.475 1.75Q22.05 0.6 24 0.6Q25.95 0.6 27.525 1.75Q29.1 2.9 29.85 4.75Q30.15 4.75 30.475 4.725Q30.8 4.7 31.15 4.7Q33.7 4.7 35.5 6.525Q37.3 8.35 37.3 10.9Q37.3 11.95 36.9 13Q36.5 14.05 35.7 15Q36.45 16 36.875 17.025Q37.3 18.05 37.3 19.15Q37.3 21.7 35.5 23.5Q33.7 25.3 31.15 25.3Q30.8 25.3 30.5 25.275Q30.2 25.25 29.85 25.25Q29.1 27.15 27.525 28.275Q25.95 29.4 24 29.4Z"/></svg>
